X: 5
T: No_102_Song_in_the_Early_Evening_(c).krn
N: Derived from No_102_Song_in_the_Early_Evening_(c).krn
%%abc-version 2.0
%%abcx-abcm2ps-target-version 5.9.1 (29 Sep 2008)
%%abc-creator hum2abc beta
%%abcx-conversion-date 2019/03/15 08:39:19
%%humdrum-veritas 2747761437
%%humdrum-veritas-data 2916348086
%%linebreak <none>
%%barnumbers 0
L: 1/8
M: 2/4
%%staves {1 2}
V: 1 clef=bass
V: 2 clef=bass
K: B
[V:1] [K:clef=bass][M:2/4]C2(3B,B,C ||  
[V:2] [K:clef=bass][M:2/4]G,,G,, G,, z/ G,,/ ||  
[V:1] [M:3/4]B,3/G,/ G,G, G, z ||  
[V:2] [M:3/4]z6 ||  
[V:1] [M:2/4]CB,-B,2 | 
[V:2] [M:2/4]z4 | 
[V:1] B,B,G,2 ||  
[V:2] z4 ||  
[V:1] [M:3/4]F,D, D,F, z B, ||  
[V:2] [M:3/4]z6 ||  
[V:1] [M:2/4]G,G, G,G, | 
[V:2] [M:2/4]z4 | 
[V:1] F,2z D, | 
[V:2] z4 | 
[V:1] D,F, F,F, ||  
[V:2] z4 ||  
[V:1] [M:3/4]F,2z2z G, ||  
[V:2] [M:3/4]z6 ||  
[V:1] [M:2/4]G,CB,2 | 
[V:2] [M:2/4]z4 | 
[V:1] B,B,G,2 ||  
[V:2] z4 ||  
[V:1] [M:3/4]F,D, D,F, z B, ||  
[V:2] [M:3/4]z6 ||  
[V:1] [M:2/4]G,G, G,G, | 
[V:2] [M:2/4]z4 | 
[V:1] F, z z D, | 
[V:2] z4 | 
[V:1] D,F, F,F, ||  
[V:2] z4 ||  
[V:1] [M:3/4]F,2z2z G, ||  
[V:2] [M:3/4]z6 ||  
[V:1] [M:2/4]G,CB,2 | 
[V:2] [M:2/4]z4 | 
[V:1] B,B,G,2 ||  
[V:2] z4 ||  
[V:1] [M:3/4]F,D, D,F, z B, ||  
[V:2] [M:3/4]z6 ||  
[V:1] [M:2/4]G,G, G,G, | 
[V:2] [M:2/4]z4 | 
[V:1] F,z2D, | 
[V:2] z4 | 
[V:1] D,F, F,F, | 
[V:2] z4 | 
[V:1] F,2z2 | 
[V:2] z4 | 
[V:1] z4 | 
[V:2] z4 | 
[V:1] [M:3/4]F,F, F,F, z C ||  
[V:2] [M:3/4]z6 ||  
[V:1] [M:2/4]C2CC | 
[V:2] [M:2/4]z4 | 
[V:1] B,2G,G, | 
[V:2] z4 | 
[V:1] G,G, z C ||  
[V:2] z4 ||  
[V:1] [M:3/4]B,2B,B,G,2 | 
[V:2] [M:3/4]z6 | 
[V:1] F,D, D,F, z B, ||  
[V:2] z6 ||  
[V:1] [M:2/4]G,G, G,G, | 
[V:2] [M:2/4]z4 | 
[V:1] F,2z D, | 
[V:2] z4 | 
[V:1] D,F, F,F, | 
[V:2] z4 | 
[V:1] F,2z2 |]  
[V:2] z4 |]  



